X: 26195
T: McMahon's Quadrille
R: jig
M: 6/8
K: Amajor
c/d/|e3 eca|e2 c A2 B|c2 e edc|cBB Bcd|
e3 eca|e2 c A2 B|c2 e dBG|AAA A2||
c|B2 c dcB|c2 e aec|B2 c dcB|cAA Adc|
B2 c dcB|c2 e aec|B2 e ^d2 f|e3 e2||
[K: Dmajor] (3e/f/g/|ddd fdf|a3 f2 d|eee aaa|f3 d2 A|
ddd fdf|a3 bag|fff age|dfe dcd|

